src/assets/images/logo.svg

<svg id="Capa_1" enable-background="new 0 0 512 512" height="512" viewBox="0 0 512 512" width="512" xmlns="http://www.w3.org/2000/svg"><g><path d="m301 0c-16.348 0-31.685 3.647-44.912 10.02-.027-.013-.06-.018-.088-.031-13.632-6.554-29.008-9.989-45-9.989-49.629 0-90 34.647-90 76 0 21.475 11.074 41.88 30 55.986v19.014l30 15h75 75l30-15v-19.014c18.926-14.106 30-34.511 30-55.986 0-41.353-40.371-76-90-76z" fill="#f2f2fc"/><path d="m361 151v-19.014c18.926-14.106 30-34.511 30-55.986 0-41.353-40.371-76-90-76-16.348 0-31.685 3.647-44.912 10.02-.027-.013-.06-.018-.088-.031v156.011h75z" fill="#dfe7f4"/><g><path d="m256 331h-120c-41.4 0-75 33.6-75 75v106h120l75-134.929 25.8-46.071z" fill="#dfe7f4"/></g><path d="m256 331v46.071l25.8-46.071z" fill="#c7cfe1"/><g><path d="m376 331h-94.2l-25.8 17.168-54.901 36.531c-12.599 8.401-20.099 22.202-20.099 37.5v89.801h75 195v-106c0-41.4-33.6-75-75-75z" fill="#f2f2fc"/></g><g><path d="m451 406c0-41.4-33.6-75-75-75h-94.2l-25.8 17.168v163.832h195z" fill="#dfe7f4"/></g><g><path d="m256 151h-105v75c0 57.99 47.01 105 105 105s105-47.01 105-105v-75z" fill="#fcc097"/><path d="m361 226v-75h-105v180c57.99 0 105-47.01 105-105z" fill="#f7a76f"/></g><g><path d="m241 421h30v30h-30z" fill="#8c574d"/></g><g><path d="m256 421h15v30h-15z" fill="#663328"/></g></g></svg>

<svg height="512" width="512" xmlns="http://www.w3.org/2000/svg"><path d="M301 0c-16.348 0-31.685 3.647-44.912 10.02-.027-.013-.06-.018-.088-.031C242.368 3.435 226.992 0 211 0c-49.629 0-90 34.647-90 76 0 21.475 11.074 41.88 30 55.986V151l30 15h150l30-15v-19.014C379.926 117.88 391 97.475 391 76c0-41.353-40.371-76-90-76z" fill="#f2f2fc"/><path d="M361 151v-19.014C379.926 117.88 391 97.475 391 76c0-41.353-40.371-76-90-76-16.348 0-31.685 3.647-44.912 10.02-.027-.013-.06-.018-.088-.031V166h75zM256 331H136c-41.4 0-75 33.6-75 75v106h120l75-134.929L281.8 331z" fill="#dfe7f4"/><path d="M256 331v46.071L281.8 331z" fill="#c7cfe1"/><path d="M376 331h-94.2L256 348.168l-54.901 36.531C188.5 393.1 181 406.901 181 422.199V512h270V406c0-41.4-33.6-75-75-75z" fill="#f2f2fc"/><path d="M451 406c0-41.4-33.6-75-75-75h-94.2L256 348.168V512h195z" fill="#dfe7f4"/><path d="M256 151H151v75c0 57.99 47.01 105 105 105s105-47.01 105-105v-75z" fill="#fcc097"/><path d="M361 226v-75H256v180c57.99 0 105-47.01 105-105z" fill="#f7a76f"/><path d="M241 421h30v30h-30z" fill="#8c574d"/><g><path d="M256 421h15v30h-15z" fill="#663328"/></g></svg>
